assets/images/document.svg

<svg viewBox="0 0 301.73 301.73" xmlns="http://www.w3.org/2000/svg" xmlns:xlink="http://www.w3.org/1999/xlink"><clipPath id="a"><path clip-rule="evenodd" d="m113.89 129.89a8 8 0 1 0 8 8.08 8.08 8.08 0 0 0 -8-8.08m0 33.27a8 8 0 1 0 8 8.09 8.08 8.08 0 0 0 -8-8.09m0 33.29a8 8 0 1 0 0 16.08 8 8 0 1 0 0-16.08m76.08 0h-50.47a8 8 0 0 0 0 16.08h50.5a8 8 0 1 0 0-16.08m0-33.3h-50.5a8 8 0 0 0 0 16.09h50.5a8 8 0 0 0 0-16.09m0-33.27h-50.5a8 8 0 0 0 0 16.08h50.5a8 8 0 0 0 0-16.08m39.47-25.4a1 1 0 0 0 -.05-.16 8 8 0 0 0 -1.69-2.59l-44.3-44.95a8.18 8.18 0 0 0 -2.69-1.78s-.05 0-.07 0a8.25 8.25 0 0 0 -2.91-.59h-88.56a18.79 18.79 0 0 0 -18.76 18.71v155.49a18.79 18.79 0 0 0 18.76 18.76h122a18.79 18.79 0 0 0 18.8-18.76v-121.27a7.94 7.94 0 0 0 -.56-2.85zm-43.79-22.48 17 17.29h-17zm25.54 149.28h-122.02a2.72 2.72 0 0 1 -2.68-2.68v-155.48a2.72 2.72 0 0 1 2.68-2.68h80.4v36.9a8 8 0 0 0 8 8h36.27v113.27a2.72 2.72 0 0 1 -2.65 2.68z"/></clipPath><clipPath id="b"><path d="m22.19 22.19h257.35v257.35h-257.35z"/></clipPath><clipPath id="c"><path d="m66.56 53.25h164.17v195.23h-164.17z"/></clipPath><path d="m113.89 129.89a8 8 0 1 0 8 8.08 8.08 8.08 0 0 0 -8-8.08m0 33.27a8 8 0 1 0 8 8.09 8.08 8.08 0 0 0 -8-8.09m0 33.29a8 8 0 1 0 0 16.08 8 8 0 1 0 0-16.08m76.08 0h-50.47a8 8 0 0 0 0 16.08h50.5a8 8 0 1 0 0-16.08m0-33.3h-50.5a8 8 0 0 0 0 16.09h50.5a8 8 0 0 0 0-16.09m0-33.27h-50.5a8 8 0 0 0 0 16.08h50.5a8 8 0 0 0 0-16.08m39.47-25.4a1 1 0 0 0 -.05-.16 8 8 0 0 0 -1.69-2.59l-44.3-44.95a8.18 8.18 0 0 0 -2.69-1.78s-.05 0-.07 0a8.25 8.25 0 0 0 -2.91-.59h-88.56a18.79 18.79 0 0 0 -18.76 18.71v155.49a18.79 18.79 0 0 0 18.76 18.76h122a18.79 18.79 0 0 0 18.8-18.76v-121.27a7.94 7.94 0 0 0 -.56-2.85zm-43.79-22.48 17 17.29h-17zm25.54 149.28h-122.02a2.72 2.72 0 0 1 -2.68-2.68v-155.48a2.72 2.72 0 0 1 2.68-2.68h80.4v36.9a8 8 0 0 0 8 8h36.27v113.27a2.72 2.72 0 0 1 -2.65 2.68z" fill="#fff" fill-rule="evenodd"/><g clip-path="url(#a)"><path d="m22.19 22.19h257.35v257.35h-257.35z" fill="#fff"/><g clip-path="url(#b)"><path d="m66.56 53.25h164.17v195.23h-164.17z" fill="#fff"/><g clip-path="url(#c)"><path d="m66.56 53.25h164.17v195.23h-164.17z" fill="#fff"/><g clip-path="url(#c)"><path d="m48.25 32.17h203.92v237.39h-203.92z" fill="#fff"/></g><path d="m22.19 22.19h257.35v257.35h-257.35z" fill="#fff"/><g clip-path="url(#b)"><path d="m66.56 53.25h164.17v195.23h-164.17z" fill="#fff"/><g clip-path="url(#c)"><path d="m0 0h301.73v301.73h-301.73z" fill="#fff"/></g></g></g></g></g></svg>

<svg xmlns="http://www.w3.org/2000/svg" xmlns:xlink="http://www.w3.org/1999/xlink" viewBox="0 0 301.73 301.73"><defs><style>.cls-1,.cls-2,.cls-3{fill:#fff;}.cls-1{clip-rule:evenodd;}.cls-3{fill-rule:evenodd;}.cls-4{clip-path:url(#clip-path);}.cls-5{clip-path:url(#clip-path-2);}.cls-6{isolation:isolate;}.cls-7{clip-path:url(#clip-path-3);}</style><clipPath id="clip-path"><path class="cls-1" d="M113.89,129.89a8,8,0,1,0,8,8.08,8.08,8.08,0,0,0-8-8.08m0,33.27a8,8,0,1,0,8,8.09,8.08,8.08,0,0,0-8-8.09m0,33.29a8,8,0,1,0,0,16.08,8,8,0,1,0,0-16.08m76.08,0H139.5a8,8,0,0,0,0,16.08H190a8,8,0,1,0,0-16.08m0-33.3H139.5a8,8,0,0,0,0,16.09H190a8,8,0,0,0,0-16.09m0-33.27H139.5a8,8,0,0,0,0,16.08H190a8,8,0,0,0,0-16.08m39.47-25.4a1,1,0,0,0-.05-.16,8,8,0,0,0-1.69-2.59l0,0-44.3-44.95h0A8.18,8.18,0,0,0,180.74,55s-.05,0-.07,0a8.25,8.25,0,0,0-2.91-.59H89.2A18.79,18.79,0,0,0,70.44,73.12V228.61A18.79,18.79,0,0,0,89.2,247.37h122A18.79,18.79,0,0,0,230,228.61V107.34A7.94,7.94,0,0,0,229.44,104.49ZM185.68,82l17,17.29h-17Zm25.54,149.28H89.2a2.72,2.72,0,0,1-2.68-2.68V73.12a2.72,2.72,0,0,1,2.68-2.68h80.4v36.9a8,8,0,0,0,8,8h36.27V228.61A2.72,2.72,0,0,1,211.22,231.29Z"/></clipPath><clipPath id="clip-path-2"><rect class="cls-2" x="22.19" y="22.19" width="257.35" height="257.35"/></clipPath><clipPath id="clip-path-3"><rect class="cls-2" x="66.56" y="53.25" width="164.17" height="195.23"/></clipPath></defs><title>document</title><g id="Layer_2" data-name="Layer 2"><g id="Layer_1-2" data-name="Layer 1"><path class="cls-3" d="M113.89,129.89a8,8,0,1,0,8,8.08,8.08,8.08,0,0,0-8-8.08m0,33.27a8,8,0,1,0,8,8.09,8.08,8.08,0,0,0-8-8.09m0,33.29a8,8,0,1,0,0,16.08,8,8,0,1,0,0-16.08m76.08,0H139.5a8,8,0,0,0,0,16.08H190a8,8,0,1,0,0-16.08m0-33.3H139.5a8,8,0,0,0,0,16.09H190a8,8,0,0,0,0-16.09m0-33.27H139.5a8,8,0,0,0,0,16.08H190a8,8,0,0,0,0-16.08m39.47-25.4a1,1,0,0,0-.05-.16,8,8,0,0,0-1.69-2.59l0,0-44.3-44.95h0A8.18,8.18,0,0,0,180.74,55s-.05,0-.07,0a8.25,8.25,0,0,0-2.91-.59H89.2A18.79,18.79,0,0,0,70.44,73.12V228.61A18.79,18.79,0,0,0,89.2,247.37h122A18.79,18.79,0,0,0,230,228.61V107.34A7.94,7.94,0,0,0,229.44,104.49ZM185.68,82l17,17.29h-17Zm25.54,149.28H89.2a2.72,2.72,0,0,1-2.68-2.68V73.12a2.72,2.72,0,0,1,2.68-2.68h80.4v36.9a8,8,0,0,0,8,8h36.27V228.61A2.72,2.72,0,0,1,211.22,231.29Z"/><g class="cls-4"><rect class="cls-2" x="22.19" y="22.19" width="257.35" height="257.35"/><g class="cls-5"><g class="cls-6"><rect class="cls-2" x="66.56" y="53.25" width="164.17" height="195.23"/><g class="cls-7"><rect class="cls-2" x="66.56" y="53.25" width="164.17" height="195.23"/><g class="cls-7"><rect class="cls-2" x="48.25" y="32.17" width="203.92" height="237.39"/></g><rect class="cls-2" x="22.19" y="22.19" width="257.35" height="257.35"/><g class="cls-5"><rect class="cls-2" x="66.56" y="53.25" width="164.17" height="195.23"/><g class="cls-7"><rect class="cls-2" width="301.73" height="301.73"/></g></g></g></g></g></g></g></g></svg>
